;FLAVOR:RepRap
;TIME:8163
;Filament used: 5.86667m
;Layer height: 0.2
;Generated with Cura_SteamEngine 2.6.2
M190 S60
M104 S210
M109 S210
G21 ;metric values
G90 ;absolute positioning
M82 ;set extruder to absolute mode
M107 ;start with the fan off
G28 X0 Y0 ;move X/Y to min endstops
G28 Z0 ;move Z to min endstops
G0 X1 Y0 Z0.15 F9000 ; Move in 1mm from edge and up [z] 0.15mm
G92 E0 ;zero the extruded length
G1 F200 E3 ;extrude 3mm of feed stock
G92 E0 ;zero the extruded length again
G1 F9000
M117 Printing...
G5
;LAYER_COUNT:95
;LAYER:0
M107
M205 X30
G0 F3000 X73.724 Y70.979 Z0.3
M205 X8
;TYPE:SKIRT
G1 F1800 X73.974 Y70.729 E0.01642
G1 X74.435 Y70.324 E0.04492
G1 X74.945 Y69.983 E0.07342
G1 X75.778 Y69.603 E0.11595
G1 X76.47 Y69.366 E0.14992
G1 X77.062 Y69.206 E0.1784
G1 X77.67 Y69.123 E0.20691
G1 X77.996 Y69.112 E0.22206
G1 X131.905 Y69.11 E2.72601
G1 X132.517 Y69.15 E2.7545
G1 X132.895 Y69.215 E2.77231
G1 X133.332 Y69.309 E2.79307
G1 X133.923 Y69.477 E2.82161
G1 X134.555 Y69.756 E2.8537
G1 X135.066 Y70.028 E2.88059
G1 X135.588 Y70.351 E2.9091
G1 X136.063 Y70.739 E2.93759
G1 X136.484 Y71.186 E2.96611
G1 X136.843 Y71.683 E2.99459
G1 X137.205 Y72.385 E3.03127
G1 X137.529 Y73.168 E3.07063
G1 X137.726 Y73.749 E3.09913
G1 X137.846 Y74.351 E3.12764
G1 X137.887 Y74.969 E3.15641
G1 X137.888 Y95.002 E4.08689
G1 X137.871 Y95.402 E4.10549
G1 X137.632 Y98.209 E4.23634
G1 X137.403 Y103.626 E4.48817
G1 X137.48 Y109.031 E4.73925
G1 X137.886 Y114.917 E5.01329
G1 X137.897 Y115.249 E5.02872
G1 X137.865 Y135.216 E5.95614
G1 X137.824 Y135.828 E5.98463
G1 X137.704 Y136.429 E6.0131
G1 X137.534 Y136.942 E6.0382
G1 X137.355 Y137.394 E6.06078
G1 X137.093 Y137.949 E6.08929
G1 X136.76 Y138.464 E6.11777
G1 X136.341 Y138.955 E6.14776
G1 X136.059 Y139.243 E6.16648
G1 X135.602 Y139.653 E6.19499
G1 X135.096 Y139.999 E6.22347
G1 X134.495 Y140.3 E6.25469
G1 X134.002 Y140.504 E6.27947
G1 X133.421 Y140.701 E6.30796
G1 X132.819 Y140.821 E6.33648
G1 X132.203 Y140.862 E6.36515
G1 X78.031 Y140.889 E8.88132
G1 X77.419 Y140.849 E8.90981
G1 X76.976 Y140.77 E8.93071
G1 X76.261 Y140.606 E8.96478
G1 X75.673 Y140.43 E8.99329
G1 X75.113 Y140.179 E9.02179
G1 X74.591 Y139.858 E9.05026
G1 X74.114 Y139.471 E9.07879
G1 X73.692 Y139.026 E9.10727
G1 X73.332 Y138.53 E9.13574
G1 X73.152 Y138.22 E9.15239
G1 X72.683 Y137.335 E9.19891
G1 X72.432 Y136.776 E9.22737
G1 X72.255 Y136.188 E9.25589
G1 X72.157 Y135.583 E9.28436
G1 X72.135 Y135.128 E9.30552
G1 X72.145 Y114.6 E10.259
G1 X72.156 Y114.283 E10.27373
G1 X72.529 Y108.78 E10.52992
G1 X72.588 Y103.398 E10.77992
G1 X72.11 Y94.943 E11.17326
G1 X72.102 Y94.666 E11.18613
G1 X72.149 Y74.764 E12.11054
G1 X72.19 Y74.152 E12.13903
G1 X72.311 Y73.55 E12.16755
G1 X72.514 Y72.957 E12.19666
G1 X72.709 Y72.491 E12.22012
G1 X72.982 Y71.942 E12.2486
G1 X73.325 Y71.432 E12.27715
G1 X73.724 Y70.979 E12.30519
M205 X30
G0 F3000 X73.992 Y71.247
M205 X8
G1 F1800 X74.242 Y70.997 E12.32161
G1 X74.685 Y70.611 E12.3489
G1 X75.177 Y70.287 E12.37627
G1 X75.901 Y69.963 E12.41311
G1 X76.593 Y69.726 E12.44708
G1 X77.161 Y69.573 E12.4744
G1 X77.996 Y69.492 E12.51337
G1 X131.905 Y69.49 E15.01732
G1 X132.492 Y69.53 E15.04465
G1 X132.816 Y69.587 E15.05993
G1 X133.253 Y69.681 E15.08069
G1 X133.818 Y69.843 E15.10799
G1 X134.377 Y70.092 E15.13642
G1 X134.888 Y70.364 E15.16331
G1 X135.387 Y70.675 E15.19062
G1 X135.839 Y71.051 E15.21793
G1 X136.237 Y71.484 E15.24524
G1 X136.572 Y71.968 E15.27258
G1 X136.854 Y72.53 E15.30179
G1 X137.178 Y73.313 E15.34115
G1 X137.365 Y73.871 E15.36848
G1 X137.476 Y74.449 E15.39582
G1 X137.507 Y74.969 E15.42002
G1 X137.508 Y95.002 E16.3505
G1 X137.492 Y95.369 E16.36757
G1 X137.252 Y98.183 E16.49874
G1 X137.023 Y103.615 E16.75127
G1 X137.1 Y109.044 E17.00346
G1 X137.507 Y114.943 E17.27811
G1 X137.517 Y115.248 E17.29228
G1 X137.485 Y135.215 E18.21971
G1 X137.444 Y135.802 E18.24704
G1 X137.324 Y136.378 E18.27437
G1 X137.181 Y136.802 E18.29515
G1 X137.002 Y137.254 E18.31773
G1 X136.749 Y137.785 E18.34505
G1 X136.426 Y138.277 E18.37239
G1 X136.07 Y138.689 E18.39768
G1 X135.788 Y138.977 E18.4164
G1 X135.349 Y139.369 E18.44374
G1 X134.861 Y139.697 E18.47105
G1 X134.35 Y139.949 E18.49751
G1 X133.857 Y140.153 E18.5223
G1 X133.299 Y140.34 E18.54963
G1 X132.721 Y140.451 E18.57697
G1 X132.203 Y140.482 E18.60107
G1 X78.031 Y140.509 E21.11724
G1 X77.444 Y140.469 E21.14457
G1 X77.061 Y140.399 E21.16265
G1 X76.346 Y140.235 E21.19672
G1 X75.783 Y140.065 E21.22404
G1 X75.248 Y139.82 E21.25137
G1 X74.751 Y139.505 E21.2787
G1 X74.302 Y139.126 E21.30599
G1 X73.908 Y138.689 E21.33332
G1 X73.488 Y138.043 E21.36911
G1 X73.019 Y137.158 E21.41563
G1 X72.78 Y136.62 E21.44298
G1 X72.615 Y136.056 E21.47027
G1 X72.529 Y135.474 E21.4976
G1 X72.515 Y135.128 E21.51368
G1 X72.525 Y114.6 E22.46716
G1 X72.535 Y114.309 E22.48069
G1 X72.909 Y108.792 E22.73753
G1 X72.968 Y103.396 E22.98818
G1 X72.489 Y94.922 E23.3824
G1 X72.482 Y94.667 E23.39425
G1 X72.529 Y74.765 E24.31866
G1 X72.57 Y74.178 E24.34599
G1 X72.691 Y73.602 E24.37333
G1 X72.865 Y73.104 E24.39783
G1 X73.06 Y72.638 E24.42129
G1 X73.323 Y72.112 E24.44861
G1 X73.655 Y71.626 E24.47595
G1 X73.992 Y71.247 E24.4995
M205 X30
G0 F3000 X74.261 Y71.516
M205 X8
G1 F1800 X74.511 Y71.266 E24.51592
G1 X74.935 Y70.898 E24.542
G1 X75.408 Y70.594 E24.56812
G1 X76.024 Y70.322 E24.59939
G1 X76.716 Y70.085 E24.63337
G1 X77.259 Y69.941 E24.65946
G1 X77.996 Y69.872 E24.69384
G1 X131.905 Y69.87 E27.1978
G1 X132.736 Y69.958 E27.23661
G1 X133.173 Y70.052 E27.25737
G1 X133.712 Y70.209 E27.28345
G1 X134.198 Y70.427 E27.30819
G1 X134.709 Y70.699 E27.33508
G1 X135.185 Y70.998 E27.36119
G1 X135.614 Y71.361 E27.38729
G1 X135.986 Y71.781 E27.41335
G1 X136.296 Y72.25 E27.43946
G1 X136.503 Y72.676 E27.46146
G1 X136.827 Y73.459 E27.50082
G1 X137.004 Y73.992 E27.5269
G1 X137.104 Y74.545 E27.55301
G1 X137.127 Y74.969 E27.57273
G1 X137.128 Y95.002 E28.50322
G1 X137.114 Y95.337 E28.51879
G1 X136.872 Y98.181 E28.65137
G1 X136.642 Y103.605 E28.90353
G1 X136.72 Y109.057 E29.15678
G1 X137.128 Y114.969 E29.43204
G1 X137.137 Y115.247 E29.44496
G1 X137.105 Y135.214 E30.37238
G1 X137.064 Y135.775 E30.39851
G1 X136.944 Y136.323 E30.42456
G1 X136.828 Y136.662 E30.44121
G1 X136.649 Y137.114 E30.46379
G1 X136.405 Y137.621 E30.48992
G1 X136.092 Y138.087 E30.51599
G1 X135.798 Y138.424 E30.53677
G1 X135.516 Y138.712 E30.55549
G1 X135.096 Y139.084 E30.58155
G1 X134.627 Y139.393 E30.60764
G1 X134.204 Y139.598 E30.62947
G1 X133.711 Y139.802 E30.65425
G1 X133.178 Y139.979 E30.68034
G1 X132.625 Y140.079 E30.70644
G1 X132.203 Y140.102 E30.72607
G1 X78.031 Y140.129 E33.24224
G1 X77.471 Y140.089 E33.26831
G1 X77.146 Y140.029 E33.28367
G1 X76.431 Y139.865 E33.31774
G1 X75.894 Y139.701 E33.34382
G1 X75.385 Y139.462 E33.36994
G1 X74.916 Y139.154 E33.396
G1 X74.495 Y138.782 E33.42209
G1 X74.131 Y138.354 E33.44819
G1 X73.824 Y137.865 E33.47501
G1 X73.355 Y136.98 E33.52153
G1 X73.128 Y136.466 E33.54763
G1 X72.976 Y135.925 E33.57373
G1 X72.895 Y135.128 E33.61094
G1 X72.905 Y114.6 E34.56442
G1 X72.914 Y114.335 E34.57673
G1 X73.289 Y108.805 E34.83418
G1 X73.349 Y103.393 E35.08557
G1 X72.868 Y94.9 E35.48068
G1 X72.862 Y94.668 E35.49146
G1 X72.909 Y74.766 E36.41587
G1 X72.95 Y74.205 E36.442
G1 X73.071 Y73.657 E36.46806
G1 X73.215 Y73.25 E36.48812
G1 X73.41 Y72.784 E36.51158
G1 X73.663 Y72.283 E36.53765
G1 X73.985 Y71.822 E36.56377
G1 X74.261 Y71.516 E36.58291
M205 X30
G0 F3000 X74.53 Y71.785
M205 X8
G1 F1800 X74.78 Y71.535 E36.59933
G1 X75.184 Y71.186 E36.62413
G1 X75.637 Y70.902 E36.64896
G1 X76.147 Y70.682 E36.67476
G1 X76.839 Y70.445 E36.70873
G1 X77.356 Y70.31 E36.73355
G1 X77.996 Y70.252 E36.7634
G1 X131.905 Y70.25 E39.26735
G1 X132.656 Y70.33 E39.30243
G1 X133.093 Y70.424 E39.3232
G1 X133.605 Y70.575 E39.34799
G1 X134.019 Y70.763 E39.36911
G1 X134.53 Y71.035 E39.396
G1 X134.982 Y71.32 E39.42082
G1 X135.385 Y71.67 E39.44561
G1 X135.732 Y72.076 E39.47041
G1 X136.015 Y72.529 E39.49522
G1 X136.152 Y72.821 E39.51021
G1 X136.476 Y73.604 E39.54956
G1 X136.642 Y74.111 E39.57434
G1 X136.732 Y74.638 E39.59918
G1 X136.747 Y74.969 E39.61457
G1 X136.748 Y95.002 E40.54505
G1 X136.735 Y95.305 E40.55914
G1 X136.494 Y98.134 E40.69102
G1 X136.262 Y103.612 E40.94569
G1 X136.341 Y109.07 E41.19923
G1 X136.749 Y114.995 E41.47508
G1 X136.757 Y115.247 E41.48679
G1 X136.725 Y135.214 E42.41421
G1 X136.684 Y135.746 E42.439
G1 X136.564 Y136.267 E42.46383
G1 X136.474 Y136.522 E42.47639
G1 X136.295 Y136.974 E42.49897
G1 X136.062 Y137.455 E42.5238
G1 X135.76 Y137.895 E42.54858
G1 X135.527 Y138.158 E42.5649
G1 X135.245 Y138.446 E42.58363
G1 X134.844 Y138.798 E42.60841
G1 X134.394 Y139.087 E42.63325
G1 X134.059 Y139.247 E42.65049
G1 X133.566 Y139.451 E42.67528
G1 X133.059 Y139.617 E42.70006
G1 X132.532 Y139.707 E42.72489
G1 X132.203 Y139.722 E42.74018
G1 X78.031 Y139.749 E45.25635
G1 X77.498 Y139.709 E45.28118
G1 X77.231 Y139.659 E45.2938
G1 X76.516 Y139.495 E45.32787
G1 X76.006 Y139.337 E45.35267
G1 X75.525 Y139.104 E45.37749
G1 X75.084 Y138.803 E45.40229
G1 X74.693 Y138.439 E45.42711
G1 X74.361 Y138.021 E45.4519
G1 X74.16 Y137.687 E45.47001
G1 X73.691 Y136.802 E45.51653
G1 X73.476 Y136.312 E45.54138
G1 X73.338 Y135.797 E45.56615
G1 X73.275 Y135.128 E45.59736
G1 X73.285 Y114.6 E46.55084
G1 X73.293 Y114.36 E46.56199
G1 X73.669 Y108.817 E46.82004
G1 X73.729 Y103.376 E47.07278
G1 X73.248 Y94.879 E47.46808
G1 X73.242 Y94.669 E47.47784
G1 X73.289 Y74.767 E48.40224
G1 X73.33 Y74.234 E48.42707
G1 X73.45 Y73.714 E48.45186
G1 X73.566 Y73.397 E48.46754
G1 X73.761 Y72.931 E48.491
G1 X74.003 Y72.455 E48.51581
G1 X74.314 Y72.021 E48.54061
G1 X74.53 Y71.785 E48.55547
M205 X30
G0 F3000 X75.048 Y71.803
M205 X8
G1 F1800 X75.432 Y71.476 E48.57889
G1 X75.863 Y71.213 E48.60234
G1 X76.27 Y71.041 E48.62287
G1 X76.962 Y70.804 E48.65684
G1 X77.451 Y70.679 E48.68028
G1 X77.996 Y70.632 E48.70569
G1 X131.905 Y70.63 E51.20965
G1 X132.576 Y70.701 E51.24099
G1 X133.013 Y70.795 E51.26175
G1 X133.496 Y70.94 E51.28517
G1 X133.841 Y71.098 E51.3028
G1 X134.352 Y71.37 E51.32968
G1 X134.777 Y71.642 E51.35312
G1 X135.155 Y71.977 E51.37658
G1 X135.474 Y72.368 E51.40002
G1 X135.801 Y72.966 E51.43168
G1 X136.125 Y73.749 E51.47104
G1 X136.28 Y74.23 E51.49451
G1 X136.367 Y74.969 E51.52907
G1 X136.368 Y95.002 E52.45956
G1 X136.356 Y95.273 E52.47216
G1 X136.114 Y98.109 E52.60436
G1 X135.882 Y103.601 E52.85968
G1 X135.961 Y109.103 E53.11526
G1 X136.369 Y115.022 E53.39084
G1 X136.377 Y115.246 E53.40125
G1 X136.345 Y135.213 E54.32868
G1 X136.304 Y135.716 E54.35212
G1 X136.121 Y136.383 E54.38424
G1 X135.942 Y136.835 E54.40682
G1 X135.719 Y137.288 E54.43028
G1 X135.428 Y137.7 E54.4537
G1 X135.255 Y137.892 E54.46571
G1 X134.973 Y138.18 E54.48443
G1 X134.593 Y138.511 E54.50784
G1 X134.165 Y138.779 E54.53129
G1 X133.914 Y138.896 E54.54416
G1 X133.421 Y139.1 E54.56894
G1 X132.94 Y139.255 E54.59241
G1 X132.203 Y139.342 E54.62688
G1 X78.031 Y139.369 E57.14305
G1 X77.316 Y139.288 E57.17647
G1 X76.601 Y139.124 E57.21054
G1 X76.119 Y138.973 E57.234
G1 X75.668 Y138.747 E57.25744
G1 X75.257 Y138.453 E57.28091
G1 X74.898 Y138.098 E57.30436
G1 X74.495 Y137.509 E57.33751
G1 X74.026 Y136.624 E57.38403
G1 X73.826 Y136.16 E57.4075
G1 X73.701 Y135.671 E57.43094
G1 X73.655 Y135.128 E57.45625
G1 X73.665 Y114.6 E58.40973
G1 X73.672 Y114.386 E58.41968
G1 X74.049 Y108.829 E58.67838
G1 X74.109 Y103.373 E58.93181
G1 X73.627 Y94.857 E59.328
G1 X73.622 Y94.669 E59.33673
G1 X73.669 Y74.767 E60.26114
G1 X73.71 Y74.264 E60.28458
G1 X73.916 Y73.544 E60.31936
G1 X74.111 Y73.078 E60.34283
G1 X74.342 Y72.629 E60.36628
G1 X74.798 Y72.053 E60.4004
G1 X75.048 Y71.803 E60.41682
M205 X30
G1 F3600 E55.41682
G0 F3000 X77.564 Y73.207
G0 X78.018 Y74.02
G0 X131.982 Y95.9
G0 X131.987 Y95.999
M205 X8
;TYPE:WALL-OUTER
G1 F3600 E60.41682
G1 F1800 X78.018 Y95.999 E62.92356
G1 X77.841 Y95.971 E62.93189
G1 X77.386 Y95.776 E62.95488
G1 X77.23 Y95.617 E62.96523
G1 X77.029 Y95.157 E62.98854
G1 X77.001 Y94.983 E62.99673
G1 X77.001 Y75.015 E63.9242
G1 X77.033 Y74.803 E63.93416
G1 X77.211 Y74.402 E63.95454
G1 X77.399 Y74.215 E63.96685
G1 X77.807 Y74.034 E63.98758
G1 X78.017 Y74.001 E63.99746
G1 X131.984 Y74.001 E66.5041
G1 X132.094 Y74.018 E66.50927
G1 X132.287 Y74.084 E66.51875
G1 X132.698 Y74.282 E66.53994
G1 X132.812 Y74.451 E66.54941
G1 X132.981 Y74.86 E66.56996
G1 X132.999 Y75.013 E66.57712
G1 X132.999 Y94.984 E67.50473
G1 X132.982 Y95.094 E67.5099
G1 X132.916 Y95.287 E67.51937
G1 X132.718 Y95.698 E67.54056
G1 X132.549 Y95.812 E67.55003
G1 X132.14 Y95.981 E67.57058
G1 X131.987 Y95.999 E67.57774
M205 X30
G0 F3000 X131.833 Y95.827
M205 X8
;TYPE:SKIN
G1 F1800 X110.177 Y74.171 E69.00026
G1 X110.11 Y74.104
M205 X30
G0 F3000 X109.64 Y74.171
M205 X8
G1 F1800 X131.296 Y95.827 E70.42278
G1 X131.363 Y95.894
M205 X30
G0 F3000 X130.758 Y95.827
M205 X8
G1 F1800 X109.103 Y74.171 E71.84526
G1 X109.036 Y74.104
M205 X30
G0 F3000 X108.565 Y74.171
M205 X8
G1 F1800 X130.221 Y95.827 E73.26778
G1 X130.288 Y95.894
M205 X30
G0 F3000 X129.684 Y95.827
M205 X8
G1 F1800 X108.028 Y74.171 E74.6903
G1 X107.961 Y74.104
M205 X30
G0 F3000 X107.49 Y74.171
M205 X8
G1 F1800 X129.146 Y95.827 E76.11282
G1 X129.213 Y95.894
M205 X30
G0 F3000 X128.609 Y95.827
M205 X8
G1 F1800 X106.953 Y74.171 E77.53534
G1 X106.886 Y74.104
M205 X30
G0 F3000 X106.416 Y74.171
M205 X8
G1 F1800 X128.071 Y95.827 E78.95783
G1 X128.138 Y95.894
M205 X30
G0 F3000 X127.534 Y95.827
M205 X8
G1 F1800 X105.878 Y74.171 E80.38035
G1 X105.811 Y74.104
M205 X30
G0 F3000 X105.341 Y74.171
M205 X8
G1 F1800 X126.997 Y95.827 E81.80287
G1 X127.064 Y95.894
M205 X30
G0 F3000 X126.459 Y95.827
M205 X8
G1 F1800 X104.803 Y74.171 E83.22539
G1 X104.736 Y74.104
M205 X30
G0 F3000 X104.266 Y74.171
M205 X8
G1 F1800 X125.922 Y95.827 E84.64791
G1 X125.989 Y95.894
M205 X30
G0 F3000 X125.384 Y95.827
M205 X8
G1 F1800 X103.729 Y74.171 E86.07039
G1 X103.662 Y74.104
M205 X30
G0 F3000 X103.191 Y74.171
M205 X8
G1 F1800 X124.847 Y95.827 E87.49291
G1 X124.914 Y95.894
M205 X30
G0 F3000 X124.31 Y95.827
M205 X8
G1 F1800 X102.654 Y74.171 E88.91543
G1 X102.587 Y74.104
M205 X30
G0 F3000 X102.116 Y74.171
M205 X8
G1 F1800 X123.772 Y95.827 E90.33795
G1 X123.839 Y95.894
M205 X30
G0 F3000 X123.235 Y95.827
M205 X8
G1 F1800 X101.579 Y74.171 E91.76047
G1 X101.512 Y74.104
M205 X30
G0 F3000 X101.042 Y74.171
M205 X8
G1 F1800 X122.697 Y95.827 E93.18296
G1 X122.764 Y95.894
M205 X30
G0 F3000 X122.16 Y95.827
M205 X8
G1 F1800 X100.504 Y74.171 E94.60548
G1 X100.437 Y74.104
M205 X30
G0 F3000 X99.967 Y74.171
M205 X8
G1 F1800 X121.623 Y95.827 E96.028
G1 X121.69 Y95.894
M205 X30
G0 F3000 X121.085 Y95.827
M205 X8
G1 F1800 X99.429 Y74.171 E97.45051
G1 X99.362 Y74.104
M205 X30
G0 F3000 X98.892 Y74.171
M205 X8
G1 F1800 X120.548 Y95.827 E98.87303
G1 X120.615 Y95.894
M205 X30
G0 F3000 X120.01 Y95.827
M205 X8
G1 F1800 X98.355 Y74.171 E100.29552
G1 X98.288 Y74.104
M205 X30
G0 F3000 X97.817 Y74.171
M205 X8
G1 F1800 X119.473 Y95.827 E101.71804
G1 X119.54 Y95.894
M205 X30
G0 F3000 X118.936 Y95.827
M205 X8
G1 F1800 X97.28 Y74.171 E103.14056
G1 X97.213 Y74.104
M205 X30
G0 F3000 X96.742 Y74.171
M205 X8
G1 F1800 X118.398 Y95.827 E104.56308
G1 X118.465 Y95.894
M205 X30
G0 F3000 X117.861 Y95.827
M205 X8
G1 F1800 X96.205 Y74.171 E105.9856
G1 X96.138 Y74.104
M205 X30
G0 F3000 X95.668 Y74.171
M205 X8
G1 F1800 X117.323 Y95.827 E107.40808
G1 X117.39 Y95.894
M205 X30
G0 F3000 X116.786 Y95.827
M205 X8
G1 F1800 X95.13 Y74.171 E108.8306
G1 X95.063 Y74.104
M205 X30
G0 F3000 X94.593 Y74.171
M205 X8
G1 F1800 X116.249 Y95.827 E110.25312
G1 X116.316 Y95.894
M205 X30
G0 F3000 X115.711 Y95.827
M205 X8
G1 F1800 X94.055 Y74.171 E111.67564
G1 X93.988 Y74.104
M205 X30
G0 F3000 X93.518 Y74.171
M205 X8
G1 F1800 X115.174 Y95.827 E113.09816
G1 X115.241 Y95.894
M205 X30
G0 F3000 X114.636 Y95.827
M205 X8
G1 F1800 X92.981 Y74.171 E114.52065
G1 X92.914 Y74.104
M205 X30
G0 F3000 X92.443 Y74.171
M205 X8
G1 F1800 X114.099 Y95.827 E115.94317
G1 X114.166 Y95.894
M205 X30
G0 F3000 X113.562 Y95.827
M205 X8
G1 F1800 X91.906 Y74.171 E117.36569
G1 X91.839 Y74.104
M205 X30
G0 F3000 X91.368 Y74.171
M205 X8
G1 F1800 X113.024 Y95.827 E118.78821
G1 X113.091 Y95.894
M205 X30
